X: 27872
T: Mount Piper
R: reel
M: 4/4
K: Amajor
EAcB AE (3EEE|EFFA BFAF|EFAB (3ccA ef|ecee BAFA|
EAcB AE (3EEE|EFFA BFAF|EFAB (3ccA ef|1 ecee AcBA:|2 ecBc ABcd||
eccc eaga|fede fgaf|eA (3cAA fAec|BBcA BAcd|
eccc eaga|fede fgaf|eA (3cAA fAec|1 BABc ABcd:|2 BABc AAFA||

